resources/haticons/SVG/exit.svg

<!-- Generated by IcoMoon.io -->
<svg version="1.1" xmlns="http://www.w3.org/2000/svg" width="24" height="24" viewBox="0 0 24 24">
<title>exit</title>
<path d="M18 15v-3h-7.5v-3h7.5v-3l4.5 4.5zM16.5 13.5v6h-7.5v4.5l-9-4.5v-19.5h16.5v7.5h-1.5v-6h-12l6 3v13.5h6v-4.5z"></path>
</svg>

<svg xmlns="http://www.w3.org/2000/svg" width="24" height="24"><path d="M18 15v-3h-7.5V9H18V6l4.5 4.5zm-1.5-1.5v6H9V24l-9-4.5V0h16.5v7.5H15v-6H3l6 3V18h6v-4.5z"/></svg>
